public/library/usd-plus-icon-dark.svg

<svg width="170" height="170" viewBox="0 0 170 170" fill="none" xmlns="http://www.w3.org/2000/svg">
<path d="M85 170C131.944 170 170 131.944 170 85C170 38.0558 131.944 0 85 0C38.0558 0 0 38.0558 0 85C0 131.944 38.0558 170 85 170Z" fill="#004CA8"/>
<path d="M129.457 127.596C91.7668 135.21 54.9444 110.783 47.2844 73.3112C43.4528 55.1547 47.3878 37.0202 56.7496 22.3759C28.3639 35.4217 11.5764 66.6462 18.0868 98.7092C25.7468 136.181 62.5692 160.608 100.26 152.994C119.687 149.189 135.254 137.651 145.394 122.237C140.339 124.539 135.285 126.455 129.457 127.596Z" fill="#002C7F"/>
<path d="M80.5418 123.08C68.1354 121.701 60.2831 113.492 59.4411 102.443C59.3571 101.341 60.2612 100.443 61.3657 100.443H67.2235C68.3281 100.443 69.2111 101.343 69.3164 102.443C70.0754 110.365 75.4701 115.047 84.923 115.047C95.1459 115.047 100.622 109.571 100.622 102.999C100.622 84.3785 60.0959 93.8712 60.0959 66.4884C60.0959 57.3608 68.4933 47.8681 80.5418 46.4077V37.4546C80.5418 36.35 81.4372 35.4546 82.5418 35.4546H86.9391C88.0437 35.4546 88.9391 36.35 88.9391 37.4546V46.4077C99.5844 48.1247 107.323 56.6243 108.205 67.046C108.299 68.1466 107.394 69.0442 106.29 69.0442H100.432C99.3273 69.0442 98.4454 68.144 98.3121 67.0476C97.4161 59.6814 91.6036 54.44 84.5579 54.44C75.4303 54.44 69.5886 60.6468 69.5886 66.4884C69.5886 85.1087 110.115 75.616 110.115 102.999C110.115 112.857 102.083 121.619 88.9391 123.445V132.398C88.9391 133.502 88.0437 134.398 86.9391 134.398H82.5418C81.4372 134.398 80.5418 133.502 80.5418 132.398V123.08Z" fill="white"/>
<path fill-rule="evenodd" clip-rule="evenodd" d="M150.434 115.644L154.894 118.812C155.899 119.526 155.794 121.049 154.701 121.619L140.261 129.142C139.114 129.74 137.757 128.845 137.855 127.556L139.126 110.679C139.222 109.399 140.679 108.715 141.725 109.458L145.725 112.299C155.935 89.0943 152.162 61.0495 133.887 41.2239C109.466 14.7298 68.3187 12.8607 41.6013 36.8848C41.2627 37.1893 40.7388 37.1709 40.4301 36.836L37.7072 33.882C37.3985 33.5471 37.4222 33.0226 37.7605 32.7178C66.7793 6.57283 111.511 8.58799 138.054 37.3832C158.189 59.2272 162.11 90.2458 150.434 115.644Z" fill="#BEE179"/>
<path fill-rule="evenodd" clip-rule="evenodd" d="M21.6199 54.5261L17.1593 51.3578C16.1545 50.644 16.2592 49.1204 17.3523 48.5509L31.7925 41.0274C32.9392 40.43 34.296 41.3245 34.1989 42.6138L32.9276 59.491C32.8312 60.7706 31.3745 61.4546 30.3282 60.7115L26.3287 57.8707C16.118 81.0755 19.8916 109.12 38.1663 128.946C62.5877 155.44 103.735 157.309 130.452 133.285C130.791 132.981 131.315 132.999 131.623 133.334L134.346 136.288C134.655 136.623 134.631 137.147 134.293 137.452C105.274 163.597 60.5423 161.582 33.9997 132.787C13.8645 110.943 9.94379 79.924 21.6199 54.5261Z" fill="#BEE179"/>
</svg>

<svg xmlns="http://www.w3.org/2000/svg" width="170" height="170" fill="none" viewBox="0 0 170 170"><path fill="#004ca8" d="M85 170c46.944 0 85-38.056 85-85S131.944 0 85 0 0 38.056 0 85s38.056 85 85 85"/><path fill="#002c7f" d="M129.457 127.596c-37.69 7.614-74.513-16.813-82.173-54.285-3.831-18.156.104-36.29 9.466-50.935-28.386 13.046-45.174 44.27-38.663 76.333 7.66 37.472 44.482 61.899 82.173 54.285 19.427-3.805 34.994-15.343 45.134-30.757-5.055 2.302-10.109 4.218-15.937 5.359"/><path fill="#fff" d="M80.542 123.08c-12.407-1.379-20.259-9.588-21.1-20.637-.085-1.102.82-2 1.924-2h5.858c1.104 0 1.987.9 2.092 2 .76 7.922 6.154 12.604 15.607 12.604 10.223 0 15.699-5.476 15.699-12.048 0-18.62-40.526-9.128-40.526-36.51 0-9.128 8.397-18.62 20.446-20.081v-8.953a2 2 0 0 1 2-2h4.397a2 2 0 0 1 2 2v8.953c10.645 1.717 18.384 10.216 19.266 20.638.094 1.1-.811 1.998-1.915 1.998h-5.858c-1.105 0-1.987-.9-2.12-1.996-.896-7.367-6.708-12.608-13.754-12.608-9.128 0-14.97 6.207-14.97 12.048 0 18.62 40.527 9.128 40.527 36.511 0 9.858-8.032 18.62-21.176 20.446v8.953a2 2 0 0 1-2 2h-4.397a2 2 0 0 1-2-2z"/><path fill="#bee179" fill-rule="evenodd" d="m150.434 115.644 4.46 3.168a1.65 1.65 0 0 1-.193 2.807l-14.44 7.523c-1.147.598-2.504-.297-2.406-1.586l1.271-16.877c.096-1.28 1.553-1.964 2.599-1.221l4 2.841c10.21-23.205 6.437-51.25-11.838-71.075-24.421-26.494-65.568-28.363-92.286-4.34a.836.836 0 0 1-1.17-.048l-2.724-2.954a.82.82 0 0 1 .053-1.164c29.02-26.145 73.751-24.13 100.294 4.665 20.135 21.844 24.056 52.863 12.38 78.261M21.62 54.526l-4.46-3.168a1.65 1.65 0 0 1 .192-2.807l14.44-7.524c1.147-.597 2.504.297 2.407 1.587L32.928 59.49c-.097 1.28-1.553 1.964-2.6 1.22l-4-2.84c-10.21 23.205-6.436 51.249 11.838 71.075 24.422 26.494 65.569 28.363 92.286 4.339a.836.836 0 0 1 1.171.049l2.723 2.954a.82.82 0 0 1-.053 1.164c-29.019 26.145-73.75 24.13-100.293-4.665-20.135-21.844-24.056-52.863-12.38-78.26" clip-rule="evenodd"/></svg>
